X:1
T: Willy Walsh's Jig
C:
R:Jig
Q:180
K:D
M:6/8
L:1/16
B2|:A2D2D2 B2A2F2|A2B2d2 e2d2B2|A2D2D2 B2A2F2|A2F2E2 E4F2|
A2D2D2 B2A2F2|A2B2d2 e2d2B2|A2d2B2 A2F2A2|1B2d2d2 d4B2:|2B2d2d2 d4B2|
|:A2F2A2 d4e2|f2d2f2 e2c2A2|B2A2B2 d4e2|f2a2f2 g2f2g2|
A2F2A2 d4e2|f2d2f2 e2c2A2|A2d2B2 A2F2A2|1B2d2d2 d4B2:|2B2d2d2 d4||
